file/echo-tv.svg

<svg clip-rule="evenodd" fill-rule="evenodd" stroke-linejoin="round" viewBox="0 0 560 400" xmlns="http://www.w3.org/2000/svg"><g transform="matrix(.433839 0 0 .433839 128.807 82.2126)"><path d="m1 41h695v461h-695z" fill="#0f0f60" stroke="#222" stroke-width="2"/><g fill="#fff" fill-rule="nonzero" transform="matrix(.1 0 0 -.1 0 524)"><path d="m70 3300v-190h1150v380h-575-575z"/><path d="m2220 3481c-272-39-515-221-637-478-62-130-78-208-77-378 1-205 43-343 151-493 169-238 410-365 693-366 136-1 237 22 365 84 117 57 193 115 266 202l52 62-43 36c-23 19-88 70-143 112l-101 77-60-60c-39-39-86-73-135-97-73-36-77-37-191-37-115 0-117 0-194 39-107 52-200 144-250 247-78 158-57 353 50 486 62 76 118 122 194 160 68 34 84 38 171 41 142 6 266-37 343-117 17-17 33-31 38-31 8 0 31 16 182 124 53 38 99 72 101 76 8 13-67 97-130 147-74 59-185 114-287 142-85 24-266 35-358 22z"/><path d="m3460 2620v-860l188 2 187 3 2 265c2 146 3 295 3 333v67l308-2 307-3 3-332 2-333h370v1720h-185-185l-2-332-3-333-307-3c-170-1-308 1-308 5 0 5-1 154-3 333l-2 325-187 3-188 2z"/><path d="m5834 3456c-341-90-591-388-625-743-29-306 79-566 316-766 184-155 454-219 704-167 219 45 379 147 519 332 160 212 207 533 117 799-86 252-297 456-560 539-57 18-100 23-225 26-139 4-164 2-246-20zm384-357c152-52 285-200 321-359 39-167-20-354-148-472-74-69-129-100-214-121-175-44-323-1-458 132-93 93-140 191-147 310-9 161 36 280 147 392 136 136 320 179 499 118z"/><path d="m74 2811c-2-2-4-89-4-193v-188l383 2 382 3v375l-378 3c-208 1-381 0-383-2z"/><path d="m70 1950v-190l578 2 577 3v370l-577 3-578 2z"/></g></g></svg>

<?xml version="1.0" encoding="UTF-8" standalone="no"?>
<!DOCTYPE svg PUBLIC "-//W3C//DTD SVG 1.1//EN" "http://www.w3.org/Graphics/SVG/1.1/DTD/svg11.dtd">
<svg width="100%" height="100%" viewBox="0 0 560 400" version="1.1" xmlns="http://www.w3.org/2000/svg" xmlns:xlink="http://www.w3.org/1999/xlink" xml:space="preserve" xmlns:serif="http://www.serif.com/" style="fill-rule:evenodd;clip-rule:evenodd;stroke-linejoin:round;">
    <g transform="matrix(0.433839,0,0,0.433839,128.807,82.2126)">
        <rect id="svg_8" x="1" y="41" width="695" height="461" style="fill:rgb(15,15,96);stroke:rgb(34,34,34);stroke-width:2px;"/>
        <g id="svg_1" transform="matrix(0.1,0,0,-0.1,0,524)">
            <path id="svg_2" d="M70,3300L70,3110L1220,3110L1220,3490L645,3490L70,3490L70,3300Z" style="fill:white;fill-rule:nonzero;"/>
            <path id="svg_3" d="M2220,3481C1948,3442 1705,3260 1583,3003C1521,2873 1505,2795 1506,2625C1507,2420 1549,2282 1657,2132C1826,1894 2067,1767 2350,1766C2486,1765 2587,1788 2715,1850C2832,1907 2908,1965 2981,2052L3033,2114L2990,2150C2967,2169 2902,2220 2847,2262L2746,2339L2686,2279C2647,2240 2600,2206 2551,2182C2478,2146 2474,2145 2360,2145C2245,2145 2243,2145 2166,2184C2059,2236 1966,2328 1916,2431C1838,2589 1859,2784 1966,2917C2028,2993 2084,3039 2160,3077C2228,3111 2244,3115 2331,3118C2473,3124 2597,3081 2674,3001C2691,2984 2707,2970 2712,2970C2720,2970 2743,2986 2894,3094C2947,3132 2993,3166 2995,3170C3003,3183 2928,3267 2865,3317C2791,3376 2680,3431 2578,3459C2493,3483 2312,3494 2220,3481Z" style="fill:white;fill-rule:nonzero;"/>
            <path id="svg_4" d="M3460,2620L3460,1760L3648,1762L3835,1765L3837,2030C3839,2176 3840,2325 3840,2363L3840,2430L4148,2428L4455,2425L4458,2093L4460,1760L4830,1760L4830,3480L4645,3480L4460,3480L4458,3148L4455,2815L4148,2812C3978,2811 3840,2813 3840,2817C3840,2822 3839,2971 3837,3150L3835,3475L3648,3478L3460,3480L3460,2620Z" style="fill:white;fill-rule:nonzero;"/>
            <path id="svg_5" d="M5834,3456C5493,3366 5243,3068 5209,2713C5180,2407 5288,2147 5525,1947C5709,1792 5979,1728 6229,1780C6448,1825 6608,1927 6748,2112C6908,2324 6955,2645 6865,2911C6779,3163 6568,3367 6305,3450C6248,3468 6205,3473 6080,3476C5941,3480 5916,3478 5834,3456ZM6218,3099C6370,3047 6503,2899 6539,2740C6578,2573 6519,2386 6391,2268C6317,2199 6262,2168 6177,2147C6002,2103 5854,2146 5719,2279C5626,2372 5579,2470 5572,2589C5563,2750 5608,2869 5719,2981C5855,3117 6039,3160 6218,3099Z" style="fill:white;fill-rule:nonzero;"/>
            <path id="svg_6" d="M74,2811C72,2809 70,2722 70,2618L70,2430L453,2432L835,2435L835,2810L457,2813C249,2814 76,2813 74,2811Z" style="fill:white;fill-rule:nonzero;"/>
            <path id="svg_7" d="M70,1950L70,1760L648,1762L1225,1765L1225,2135L648,2138L70,2140L70,1950Z" style="fill:white;fill-rule:nonzero;"/>
        </g>
    </g>
</svg>
